static/images/whatsapp.svg

<svg width="44" height="44" viewBox="0 0 44 44" xmlns="http://www.w3.org/2000/svg"><g id="Page-1" fill="none" fill-rule="evenodd"><g id="Artboard-Copy-12" transform="translate(-88 -329)"><g id="Group-5" transform="translate(88.178721 329.429321)"><circle id="Oval-4" fill="#1BD741" cx="21.5" cy="21.5" r="21.5"/><g id="Group" transform="translate(6.688889 5.255556)" fill="#FFF" fill-rule="nonzero"><path d="M.04683566 30.2829516l2.11642193-7.516839C.80227399 20.4540048.08570736 17.8233388.08570736 15.1209022c0-8.3209143 6.7695542-15.0904685 15.09046854-15.0904685 8.3209143 0 15.0903737 6.7695542 15.0903737 15.0904685s-6.7694594 15.0904685-15.0903737 15.0904685c-2.5927425 0-5.1315386-.6636631-7.3774697-1.9238647L.04683566 30.2829516zm8.14817227-4.7408307l.46190959.2820569c1.95818568 1.195447 4.21255468 1.8273492 6.51925838 1.8273492 6.9093975 0 12.53053-5.6212273 12.53053-12.5306248s-5.6211325-12.53062475-12.53053-12.53062475c-6.90939753 0-12.53062479 5.62122725-12.53062479 12.53062475 0 2.4074857.68423675 4.7453815 1.9785696 6.7609266l.31106842.4843793-1.21877005 4.3287906 4.47858885-1.1528778z" id="Shape"/><path d="M10.9370746 8.09735464l-.9791876-.05337749c-.30756049-.0167812-.60924282.08599179-.84171455.28793502-.4747088.41222965-1.23374988 1.20919434-1.46688528 2.24773243-.3476647 1.5485159.18961806 3.4446964 1.58018207 5.340877 1.39056396 1.8961805 3.98197916 4.9300694 8.56438386 6.2258244 1.4766507.4175389 2.6382509.1360509 3.5344806-.4372592.7098352-.4540405 1.1991446-1.1828375 1.3754894-2.0067279l.1563401-.7302192c.0496799-.2320925-.0681677-.4675981-.2837635-.5669579l-3.3093091-1.5253825c-.2148372-.0989806-.4695891-.0364067-.614078.1508412l-1.2991682 1.6841875c-.0981273.1272338-.2661289.1776722-.4178233.1243895-.889688-.3126802-3.8699149-1.560841-5.505181-4.7107762-.0709172-.1366198-.0532827-.3024408.0473097-.4189611l1.241619-1.4363567c.1268545-.1466696.1588999-.3528792.0826735-.5311202l-1.4264967-3.33737261c-.075942-.17767211-.2461242-.29675225-.438871-.30727605z" id="Shape"/></g></g></g></g></svg>

<?xml version="1.0" encoding="UTF-8"?>
<svg width="44px" height="44px" viewBox="0 0 44 44" version="1.1" xmlns="http://www.w3.org/2000/svg" xmlns:xlink="http://www.w3.org/1999/xlink">
    <!-- Generator: Sketch 49.3 (51167) - http://www.bohemiancoding.com/sketch -->
    <title>Group 5</title>
    <desc>Created with Sketch.</desc>
    <defs></defs>
    <g id="Page-1" stroke="none" stroke-width="1" fill="none" fill-rule="evenodd">
        <g id="Artboard-Copy-12" transform="translate(-88.000000, -329.000000)">
            <g id="Group-5" transform="translate(88.178721, 329.429321)">
                <circle id="Oval-4" fill="#1BD741" cx="21.5" cy="21.5" r="21.5"></circle>
                <g id="Group" transform="translate(6.688889, 5.255556)" fill="#FFFFFF" fill-rule="nonzero">
                    <path d="M0.0468356597,30.2829516 L2.16325759,22.7661126 C0.802273993,20.4540048 0.0857073611,17.8233388 0.0857073611,15.1209022 C0.0857073611,6.7999879 6.85526156,0.0304336979 15.1761759,0.0304336979 C23.4970902,0.0304336979 30.2665496,6.7999879 30.2665496,15.1209022 C30.2665496,23.4418165 23.4970902,30.2113707 15.1761759,30.2113707 C12.5834334,30.2113707 10.0446373,29.5477076 7.7987062,28.287506 L0.0468356597,30.2829516 Z M8.19500793,25.5421209 L8.65691752,25.8241778 C10.6151032,27.0196248 12.8694722,27.651527 15.1761759,27.651527 C22.0855734,27.651527 27.7067059,22.0302997 27.7067059,15.1209022 C27.7067059,8.2115047 22.0855734,2.59027745 15.1761759,2.59027745 C8.26677837,2.59027745 2.64555111,8.2115047 2.64555111,15.1209022 C2.64555111,17.5283879 3.32978786,19.8662837 4.62412071,21.8818288 L4.93518913,22.3662081 L3.71641908,26.6949987 L8.19500793,25.5421209 Z" id="Shape"></path>
                    <path d="M10.9370746,8.09735464 L9.957887,8.04397715 C9.65032651,8.02719595 9.34864418,8.12996894 9.11617245,8.33191217 C8.64146365,8.74414182 7.88242257,9.54110651 7.64928717,10.5796446 C7.30162247,12.1281605 7.83890523,14.024341 9.22946924,15.9205216 C10.6200332,17.8167021 13.2114484,20.850591 17.7938531,22.146346 C19.2705038,22.5638849 20.432104,22.2823969 21.3283337,21.7090868 C22.0381689,21.2550463 22.5274783,20.5262493 22.7038231,19.7023589 L22.8601632,18.9721397 C22.9098431,18.7400472 22.7919955,18.5045416 22.5763997,18.4051818 L19.2670906,16.8797993 C19.0522534,16.7808187 18.7975015,16.8433926 18.6530126,17.0306405 L17.3538444,18.714828 C17.2557171,18.8420618 17.0877155,18.8925002 16.9360211,18.8392175 C16.0463331,18.5265373 13.0661062,17.2783765 11.4308401,14.1284413 C11.3599229,13.9918215 11.3775574,13.8260005 11.4781498,13.7094802 L12.7197688,12.2731235 C12.8466233,12.1264539 12.8786687,11.9202443 12.8024423,11.7420033 L11.3759456,8.40463069 C11.3000036,8.22695858 11.1298214,8.10787844 10.9370746,8.09735464 Z" id="Shape"></path>
                </g>
            </g>
        </g>
    </g>
</svg>
